symbols/web/rv_hookup/materialsymbolssharp/rv_hookup_wght500gradN25_20px.svg

<svg xmlns="http://www.w3.org/2000/svg" height="20" width="20"><path d="m16.167 17.896-1.25-1.25.854-.854H9.917q-.292.75-.948 1.198-.657.448-1.448.448-.813 0-1.469-.459-.656-.458-.948-1.187H1.646V8.396h4.896V6.104H1.646V4.312h12.437v9.667h1.729l-.895-.896 1.25-1.229 3.021 3.021Zm-7.834-9.5h3.938V6.104H8.333Zm-.812 7.25q.333 0 .562-.219.229-.219.229-.552 0-.333-.218-.563-.219-.229-.552-.229-.334 0-.563.219-.229.219-.229.552 0 .334.229.563.229.229.542.229Zm-2.438-1.667q.292-.75.948-1.208.657-.459 1.49-.459.812 0 1.458.459.646.458.959 1.208h2.333v-3.791H3.438v3.791Zm0-3.791H3.438h8.833H5.083Z"/></svg>

<svg xmlns="http://www.w3.org/2000/svg" height="20" width="20"><path d="M16.167 17.896 14.917 16.646 15.771 15.792H9.917Q9.625 16.542 8.969 16.99Q8.312 17.438 7.521 17.438Q6.708 17.438 6.052 16.979Q5.396 16.521 5.104 15.792H1.646V8.396H6.542V6.104H1.646V4.312H14.083V13.979H15.812L14.917 13.083L16.167 11.854L19.188 14.875ZM8.333 8.396H12.271V6.104H8.333ZM7.521 15.646Q7.854 15.646 8.083 15.427Q8.312 15.208 8.312 14.875Q8.312 14.542 8.094 14.312Q7.875 14.083 7.542 14.083Q7.208 14.083 6.979 14.302Q6.75 14.521 6.75 14.854Q6.75 15.188 6.979 15.417Q7.208 15.646 7.521 15.646ZM5.083 13.979Q5.375 13.229 6.031 12.771Q6.688 12.312 7.521 12.312Q8.333 12.312 8.979 12.771Q9.625 13.229 9.938 13.979H12.271V10.188H3.438V13.979ZM5.083 10.188H3.438H12.271H9.938Q9.625 10.188 8.969 10.188Q8.312 10.188 7.521 10.188Q6.688 10.188 6.031 10.188Q5.375 10.188 5.083 10.188Z"/></svg>
